X:105
T:Legacy, The
R:jig
Z:Transcribed by Dave Marshall
M:6/8
K:G
|:~G3 ~B3|~g3 gab|~G3 ~B3|dBA ABA|
~G3 ~B3|~g3 gab|age ege |1dBG ABA:|2 dBG ABd
|:e3 edB|~d3 dBd|e3 edB|dBA ABd|
e3 edB|~d3 def|~g3 ege|1 dBG ABd:|2 dBG ABA |
